icons/single-select-16.svg

<svg xmlns="http://www.w3.org/2000/svg" width="16" height="16" viewBox="0 0 16 16"><path d="M5.06 7.356l2.795 2.833c.08.081.21.081.29 0l2.794-2.833c.13-.131.038-.356-.145-.356H5.206c-.183 0-.275.225-.145.356z"/><path fill-rule="evenodd" d="M1 2.75C1 1.784 1.784 1 2.75 1h10.5c.966 0 1.75.784 1.75 1.75v10.5A1.75 1.75 0 0113.25 15H2.75A1.75 1.75 0 011 13.25V2.75zm1.75-.25a.25.25 0 00-.25.25v10.5c0 .138.112.25.25.25h10.5a.25.25 0 00.25-.25V2.75a.25.25 0 00-.25-.25H2.75z"/></svg>

<svg xmlns="http://www.w3.org/2000/svg" width="16" height="16" viewBox="0 0 16 16">
  <defs/>
  <path d="M5.06,7.356 L7.855,10.189 C7.935,10.27 8.065,10.27 8.145,10.189 L10.939,7.356 C11.069,7.225 10.977,7 10.794,7 L5.206,7 C5.023,7 4.931,7.225 5.061,7.356 Z"/>
  <path d="M1,2.75 C1,1.784 1.784,1 2.75,1 L13.25,1 C14.216,1 15,1.784 15,2.75 L15,13.25 C15,14.216 14.216,15 13.25,15 L2.75,15 C1.784,15 1,14.216 1,13.25 Z M2.75,2.5 C2.612,2.5 2.5,2.612 2.5,2.75 L2.5,13.25 C2.5,13.388 2.612,13.5 2.75,13.5 L13.25,13.5 C13.388,13.5 13.5,13.388 13.5,13.25 L13.5,2.75 C13.5,2.612 13.388,2.5 13.25,2.5 Z"/>
</svg>
